ix/direct-left_broken.svg

<svg viewBox="0 0 24 24" fill="none" xmlns="http://www.w3.org/2000/svg" height="1em" width="1em">
  <path d="M16.3 3.07005C19.05 1.62005 22.04 4.55005 20.65 7.33005L19.03 10.57C18.58 11.47 18.58 12.53 19.03 13.43L20.65 16.67C22.04 19.45 19.05 22.37 16.3 20.93L4.71 14.83C2.43 13.63 2.43 10.37 4.71 9.17005L11.68 5.50005" stroke="#292D32" stroke-width="1.5" stroke-linecap="round" stroke-linejoin="round"/>
</svg>

<svg viewBox="0 0 24 24" fill="none" xmlns="http://www.w3.org/2000/svg" height="1em" width="1em">
  <path d="M16.3 3.07c2.75-1.45 5.74 1.48 4.35 4.26l-1.62 3.24c-.45.9-.45 1.96 0 2.86l1.62 3.24c1.39 2.78-1.6 5.7-4.35 4.26l-11.59-6.1c-2.28-1.2-2.28-4.46 0-5.66l6.97-3.67" stroke="#292D32" stroke-width="1.5" stroke-linecap="round" stroke-linejoin="round"/>
</svg>
